!!!OTL: Aus der Passion
!!!ARE: Europa, Mitteleuropa, Deutschland
!!!SCT: A0543A
!!!YEM: Copyright 1995, estate of Helmut Schaffrath.
**kern
*ICvox
*Ivox
*M6/2
*k[b-]
*F:
{2f
=1
1f
2cc
1a
2f
=2
1cc
2dd
1cc}
{2cc
=3
1a
2b-
2cc
2cc
2b-
=4
1a
2f
1g
2g
=5
1.f
1r}
{2a
=6
1a
2a
2a
2b-
2cc
=7
2cc
2b-
2a
1g}
{2a
=8
2f
2g
2a
1cc
2b-
=9
2a
2f
2a
1g
2g
=10
[1.f
1f]}
==
!!!AGN: Romanze, Ballade, Lied, religioeses Lied
!! Coelner Gsgb. 1623 S. 137
!!!ONB: ESAC (Essen Associative Code) Database: ALTDEU
!!!AMT: compound duple
!!!AIN: vox
!!!EED: Helmut Schaffrath
!!!EEV: 1.0
*-
